src/assets/tokens/hohm-honey.svg

<svg width="192" height="128" viewBox="0 0 192 128" fill="none" xmlns="http://www.w3.org/2000/svg">
<circle cx="64" cy="64" r="60" fill="white" stroke="url(#paint0_linear_19636_4738)" stroke-width="8"/>
<path d="M64 114C91.6142 114 114 91.6142 114 64C114 36.3858 91.6142 14 64 14C36.3858 14 14 36.3858 14 64C14 91.6142 36.3858 114 64 114Z" fill="url(#paint1_linear_19636_4738)"/>
<path d="M68.7994 85.9845V86.0845H85.9994V79.8845H77.5056C82.615 76.0127 85.8994 69.9939 85.8994 63.2345C85.8994 51.5533 76.0931 42.0845 63.9994 42.0845C51.9056 42.0845 42.0994 51.5533 42.0994 63.2345C42.0994 69.9939 45.3806 76.0127 50.4931 79.8845H41.9994V86.0845H59.1994V77.7502C52.9338 75.7814 48.3994 70.047 48.3994 63.2845C48.3994 54.8908 55.3838 48.0845 63.9994 48.0845C72.615 48.0845 79.5994 54.8908 79.5994 63.2845C79.5994 70.047 75.0681 75.7783 68.7994 77.7533V85.9845Z" fill="black"/>
<g clip-path="url(#clip0_19636_4738)">
<path d="M128 128C163.346 128 192 99.3462 192 64C192 28.6538 163.346 0 128 0C92.6538 0 64 28.6538 64 64C64 99.3462 92.6538 128 128 128Z" fill="#FEF3C7"/>
<path d="M109.734 93.88H99.918C98.2873 93.8952 96.679 93.4989 95.242 92.728C93.8417 91.9784 92.6609 90.8769 91.816 89.532L86.584 81.008C85.7571 79.7725 85.3215 78.3166 85.334 76.83C85.334 75.296 85.75 73.974 86.584 72.696L91.908 64.042L86.584 55.432C85.7653 54.1934 85.3304 52.7407 85.334 51.256C85.334 49.764 85.75 48.356 86.584 47.078L91.816 38.554C92.6479 37.1979 93.8319 36.0927 95.242 35.356C96.677 34.5751 98.2843 34.1654 99.918 34.164H109.734L114.92 25.724C115.752 24.3686 116.936 23.2641 118.346 22.528C119.781 21.7464 121.388 21.336 123.022 21.334H132.978C134.69 21.334 136.218 21.718 137.654 22.528C139.054 23.2775 140.235 24.3791 141.08 25.724L146.312 34.164H156.128C157.842 34.164 159.368 34.546 160.804 35.356C162.205 36.1061 163.385 37.2083 164.23 38.554L169.416 47.078C170.25 48.358 170.666 49.722 170.666 51.256C170.666 52.79 170.25 54.154 169.416 55.432L164.092 64.042L169.416 72.696C170.25 73.976 170.666 75.338 170.666 76.83C170.671 78.3155 170.236 79.7691 169.416 81.008L164.23 89.532C163.398 90.8873 162.214 91.9918 160.804 92.728C159.365 93.4949 157.758 93.8909 156.128 93.88H146.312L141.08 102.32C140.248 103.675 139.064 104.78 137.654 105.516C136.215 106.282 134.608 106.678 132.978 106.666H123.02C121.389 106.682 119.781 106.286 118.344 105.516C116.944 104.766 115.763 103.665 114.918 102.32L109.734 93.88ZM146.312 59.78H156.266L161.36 51.256L156.266 42.73H146.312L141.08 51.256L146.312 59.78ZM123.162 72.568H132.884L138.07 64.042L132.884 55.518H123.162L117.976 64.042L123.162 72.568ZM123.162 46.994H132.884L138.21 38.34L133.024 29.944H123.068L117.884 38.34L123.208 46.994H123.162ZM114.966 51.254L109.78 42.73H99.964L94.778 51.256L99.964 59.78H109.78L114.966 51.254ZM114.966 76.83L109.78 68.306H99.826L94.732 76.83L99.918 85.354H109.734L114.92 76.83H114.966ZM123.162 81.092L117.836 89.702L123.022 98.142H132.978L138.164 89.702L132.838 81.092H123.116H123.162ZM146.312 85.354H156.128L161.314 76.83L156.128 68.306H146.312L141.08 76.83L146.312 85.354Z" fill="#D97706"/>
</g>
<defs>
<linearGradient id="paint0_linear_19636_4738" x1="128" y1="64" x2="9.37779e-07" y2="64" gradientUnits="userSpaceOnUse">
<stop stop-color="#29B8ED"/>
<stop offset="1" stop-color="#2DF6A7"/>
</linearGradient>
<linearGradient id="paint1_linear_19636_4738" x1="14" y1="63.9997" x2="113.999" y2="63.9997" gradientUnits="userSpaceOnUse">
<stop stop-color="#FE8A1F"/>
<stop offset="1" stop-color="#F8CC82"/>
</linearGradient>
<clipPath id="clip0_19636_4738">
<rect width="128" height="128" fill="white" transform="translate(64)"/>
</clipPath>
</defs>
</svg>

<svg xmlns="http://www.w3.org/2000/svg" viewBox="0 0 192 128"><circle cx="64" cy="64" r="60" fill="#fff" stroke="url(#_hohm-a)" stroke-width="8"/><circle cx="64" cy="64" r="50" fill="url(#_hohm-b)"/><path d="M68.8 85.985v.1H86v-6.2h-8.494c5.109-3.872 8.393-9.891 8.393-16.65 0-11.682-9.806-21.15-21.9-21.15s-21.9 9.468-21.9 21.15c0 6.759 3.282 12.778 8.394 16.65H42v6.2h17.2V77.75c-6.265-1.969-10.8-7.703-10.8-14.465 0-8.394 6.985-15.2 15.6-15.2 8.616 0 15.6 6.806 15.6 15.2 0 6.762-4.53 12.493-10.8 14.468z"/><defs><linearGradient id="_hohm-a" x1="128" x2="0" y1="64" y2="64" gradientUnits="userSpaceOnUse"><stop stop-color="#29b8ed"/><stop offset="1" stop-color="#2df6a7"/></linearGradient><linearGradient id="_hohm-b" x1="14" x2="113.999" y1="64" y2="64" gradientUnits="userSpaceOnUse"><stop stop-color="#fe8a1f"/><stop offset="1" stop-color="#f8cc82"/></linearGradient></defs><circle cx="64" cy="64" r="64" fill="#fef3c7" transform="translate(64)"/><path fill="#d97706" d="M109.734 93.88h-9.816a9.7 9.7 0 0 1-4.676-1.152 9.14 9.14 0 0 1-3.426-3.196l-5.232-8.524a7.4 7.4 0 0 1-1.25-4.178c0-1.534.416-2.856 1.25-4.134l5.324-8.654-5.324-8.61a7.54 7.54 0 0 1-1.25-4.176c0-1.492.416-2.9 1.25-4.178l5.232-8.524a8.8 8.8 0 0 1 3.426-3.198 9.8 9.8 0 0 1 4.676-1.192h9.816l5.186-8.44a8.8 8.8 0 0 1 3.426-3.196 9.8 9.8 0 0 1 4.676-1.194h9.956c1.712 0 3.24.384 4.676 1.194a9.14 9.14 0 0 1 3.426 3.196l5.232 8.44h9.816c1.714 0 3.24.382 4.676 1.192a9.14 9.14 0 0 1 3.426 3.198l5.186 8.524c.834 1.28 1.25 2.644 1.25 4.178s-.416 2.898-1.25 4.176l-5.324 8.61 5.324 8.654c.834 1.28 1.25 2.642 1.25 4.134a7.53 7.53 0 0 1-1.25 4.178l-5.186 8.524a8.8 8.8 0 0 1-3.426 3.196 9.8 9.8 0 0 1-4.676 1.152h-9.816l-5.232 8.44a8.8 8.8 0 0 1-3.426 3.196 9.8 9.8 0 0 1-4.676 1.15h-9.958a9.7 9.7 0 0 1-4.676-1.15 9.14 9.14 0 0 1-3.426-3.196zm36.578-34.1h9.954l5.094-8.524-5.094-8.526h-9.954l-5.232 8.526zm-23.15 12.788h9.722l5.186-8.526-5.186-8.524h-9.722l-5.186 8.524zm0-25.574h9.722l5.326-8.654-5.186-8.396h-9.956l-5.184 8.396 5.324 8.654zm-8.196 4.26-5.186-8.524h-9.816l-5.186 8.526 5.186 8.524h9.816zm0 25.576-5.186-8.524h-9.954l-5.094 8.524 5.186 8.524h9.816l5.186-8.524zm8.196 4.262-5.326 8.61 5.186 8.44h9.956l5.186-8.44-5.326-8.61h-9.722zm23.15 4.262h9.816l5.186-8.524-5.186-8.524h-9.816l-5.232 8.524z"/></svg>
